src/assets/images/callToAction/left.svg

<svg xmlns="http://www.w3.org/2000/svg" width="514" height="517" fill="none"><path fill="#0043FF" fill-opacity=".03" d="M487.356 222.039H255.598L18.484 0h288.574a26.64 26.64 0 0 1 18.188 7.186l180.284 168.82c17.604 16.493 5.939 46.033-18.188 46.033zM149.65 222.039H-297V0h209.363zM487.356 294.052H255.598L18.484 516.091h288.574a26.64 26.64 0 0 0 18.188-7.186l180.284-168.82c17.604-16.493 5.939-46.033-18.188-46.033zM149.65 294.052H-297v222.039h209.363z"/></svg>

<svg width="514" height="517" viewBox="0 0 514 517" fill="none" xmlns="http://www.w3.org/2000/svg">
<path d="M487.356 222.039H255.598L18.4844 0H307.058C313.806 0 320.314 2.57213 325.246 7.18607L505.53 176.006C523.134 192.499 511.469 222.039 487.342 222.039H487.356Z" fill="#0043FF" fill-opacity="0.03"/>
<path d="M149.65 222.039H-297V0H-87.6374L149.65 222.039Z" fill="#0043FF" fill-opacity="0.03"/>
<path d="M487.356 294.052H255.598L18.4844 516.091H307.058C313.806 516.091 320.314 513.519 325.246 508.905L505.53 340.085C523.134 323.592 511.469 294.052 487.342 294.052H487.356Z" fill="#0043FF" fill-opacity="0.03"/>
<path d="M149.65 294.052H-297V516.091H-87.6374L149.65 294.052Z" fill="#0043FF" fill-opacity="0.03"/>
</svg>
